!!!OTL: De klenge Man (3-28), S. 72
!!!id: K1161
**kern
*clefG2
*k[]
*C:
{8g
=1
8cc
8g
8g
16g
16g
=2
8a
8a
4g}
=3
{8f
16d
16d
8d
16f
16f
=4
8e
8d
8c}
=5
{8g
=6
8cc
8g
8g
16g
16g
=7
8a
8a
8g}
16r
=8
{16cc
=9
8b
8b
8a
16b
16b
=10
4cc}
8r
==
*-
!!!minrhy: 16
!!!meters: 2/4 ]  ZZ[4
!!!cut: De klenge Man (3-28), S. 72
!!!reg: Luxemburg
!!!trd: KINTZELE, Guillaume: An der Ucht, Bd. 3 Luxemburg 1928
!!!rhy1: X_  X_X_X_XX  X_X_X__
!!!rhy2: X_XXX_XX  X_X_X_
!!!key: K1161  16  C 2/4 ]  ZZ[4
!!!mod: HEPTATONIK IONISCH]  AMBITUS[8
!!!kad: 515+1
!!!akz: +16_43_+16_7+1_
!!!fot: 'a__b__a__c__
!!!for: 'a__b__av_aw_
!!!fok: '^__\__^__V__
!! PHRAS[VORWIEGEND AUFTAKTIG]
!!!fkt: Spottlied
!! KINTZELE
!! PR[38] 2K[0] 2G[3] 3K[14] 3G[7] 4A[3] 4Ü[0] 5A[0] 6K[0] 6G[0]
!! 7K[0] 7G[0] 8A[0] MEHR[0] SI[28] ABS[29] SR[3] SP[24]
!! ST[4] 2k[3] 2g[17] 3k[3] 3g[0] 4d[3] 4ü[0] 5d[3] 6k[3] 6g[0]
!! 7k[0] 7g[0] 8d[0] mehr[0] si[34] dm[-6] sr[21] sp[14]
!! 1F[19] 2F[52] 3F[6] 4F[6] LF[0] 2P[13] 3P[3] 4P[0] TRI[0] DF[6] AB[31]
!! TF[0] U3K[0] U3[0] U4[0] U4Ü[0] U5[0] U6K[0] U6[0] U7K[0] U7[3]
!! N1[10] N2K[0] N2[10] N3K[0] N3[17] N4[10] N4Ü[0] N5[40] N6K[0] N6[7]
!!!n7k: 0] N7[0] O1[3] O2K[0] O2[0] O3K[0] O3[0] HÖ[0
